public/images/ic_tender.svg

<svg width="20" height="45" viewBox="0 0 20 45" xmlns="http://www.w3.org/2000/svg"><title>ic_Tender</title><g fill="none" fill-rule="evenodd"><path d="M19.938 1.048L18.126 0 0 10.465l1.813 1.048L19.938 1.048z" fill="#888889"/><path d="M1.813 45L0 43.952V10.465l1.813 1.048V45z" fill="#505051"/><path d="M1.813 11.513L19.938 1.048v33.487L1.813 45V11.513z" fill="#DCDBDB"/><path d="M12.685 3.141l.003-1.058 2.736 1.571v.978l-2.739-1.491z" fill="#505051"/><path d="M16.313.128l-3.625 1.955 2.736 1.571 3.727-2.025L16.313.128z" fill="#6C6C6D"/><path d="M19.151 1.629l.011 1.001-3.738 2.002v-.978l3.727-2.025z" fill="#939598"/><path d="M19.162 2.63v10.527l-1.035-2.692-2.703 4.719V4.632l3.738-2.002z" fill="#939598"/><path d="M14.5 4.13v10.521l.924.533V4.632L14.5 4.13z" fill="#505051"/><path d="M19.162 13.157l-2.006-1.19.971-1.502 1.035 2.692z" fill="#6C6C6D"/><path d="M5.438 24.07l10.875-6.28v2.094L5.438 26.162V24.07z" fill="#939598"/><path d="M16.313 19.884L14.5 18.837 5.438 24.07v2.092l10.875-6.278z" fill="#505051"/><g><path d="M5.438 30.349l10.875-6.279v2.093L5.438 32.441v-2.092z" fill="#939598"/><path d="M16.313 26.163L14.5 25.116l-9.062 5.233v2.092l10.875-6.278z" fill="#505051"/></g><g><path d="M5.438 36.628l10.875-6.279v2.093L5.438 38.721v-2.093z" fill="#939598"/><path d="M16.313 32.442L14.5 31.395l-9.062 5.233v2.093l10.875-6.279z" fill="#505051"/></g></g></svg>

<?xml version="1.0" encoding="UTF-8" standalone="no"?>
<svg width="20px" height="45px" viewBox="0 0 20 45" version="1.1" xmlns="http://www.w3.org/2000/svg" xmlns:xlink="http://www.w3.org/1999/xlink">
    <!-- Generator: Sketch 3.6.1 (26313) - http://www.bohemiancoding.com/sketch -->
    <title>ic_Tender</title>
    <desc>Created with Sketch.</desc>
    <defs></defs>
    <g id="Page-2" stroke="none" stroke-width="1" fill="none" fill-rule="evenodd">
        <g id="Artboard-6" transform="translate(-30.000000, -459.000000)">
            <g id="ic_Tender" transform="translate(30.000000, 459.000000)">
                <g id="Layer_1">
                    <g id="Group">
                        <g id="Shape">
                            <path d="M19.938,1.048 L18.126,0 L0,10.465 L1.813,11.513 L19.938,1.048 Z" fill="#888889"></path>
                            <path d="M1.813,45 L0,43.952 L0,10.465 L1.813,11.513 L1.813,45 Z" fill="#505051"></path>
                            <path d="M1.813,11.513 L19.938,1.048 L19.938,34.535 L1.813,45 L1.813,11.513 Z" fill="#DCDBDB"></path>
                        </g>
                        <path d="M12.685,3.141 L12.688,2.083 L15.424,3.654 L15.424,4.632 L12.685,3.141 Z" id="Shape" fill="#505051"></path>
                        <path d="M16.313,0.128 L12.688,2.083 L15.424,3.654 L19.151,1.629 L16.313,0.128 Z" id="Shape" fill="#6C6C6D"></path>
                        <path d="M19.151,1.629 L19.162,2.63 L15.424,4.632 L15.424,3.654 L19.151,1.629 Z" id="Shape" fill="#939598"></path>
                        <path d="M19.162,2.63 L19.162,13.157 L18.127,10.465 L15.424,15.184 L15.424,4.632 L19.162,2.63 Z" id="Shape" fill="#939598"></path>
                        <path d="M14.5,4.13 L14.5,14.651 L15.424,15.184 L15.424,4.632 L14.5,4.13 Z" id="Shape" fill="#505051"></path>
                        <path d="M19.162,13.157 L17.156,11.967 L18.127,10.465 L19.162,13.157 Z" id="Shape" fill="#6C6C6D"></path>
                        <g transform="translate(5.000000, 17.000000)" id="Shape">
                            <path d="M0.438,7.07 L11.313,0.79 L11.313,2.884 L0.438,9.162 L0.438,7.07 Z" fill="#939598"></path>
                            <path d="M11.313,2.884 L9.5,1.837 L0.438,7.07 L0.438,9.162 L11.313,2.884 Z" fill="#505051"></path>
                        </g>
                        <g transform="translate(5.000000, 24.000000)" id="Shape">
                            <path d="M0.438,6.349 L11.313,0.07 L11.313,2.163 L0.438,8.441 L0.438,6.349 Z" fill="#939598"></path>
                            <path d="M11.313,2.163 L9.5,1.116 L0.438,6.349 L0.438,8.441 L11.313,2.163 Z" fill="#505051"></path>
                        </g>
                        <g transform="translate(5.000000, 30.000000)" id="Shape">
                            <path d="M0.438,6.628 L11.313,0.349 L11.313,2.442 L0.438,8.721 L0.438,6.628 Z" fill="#939598"></path>
                            <path d="M11.313,2.442 L9.5,1.395 L0.438,6.628 L0.438,8.721 L11.313,2.442 Z" fill="#505051"></path>
                        </g>
                    </g>
                </g>
            </g>
        </g>
    </g>
</svg>
